X:1
T:The entertainer
T:The Entertainer
T:Scott Joplin
C:Scot Joplin
%%score [ 1 2 3 ]
L:1/8
M:4/4
K:G
V:1 treble-8 transpose=7 nm="Capo VII Guitar" snm="VII G"
V:2 treble-8 nm="Classical Guitar" snm="Guit."
V:3 treble-8 nm="Classical Guitar" snm="Guit."
V:1
[K:C]!f! GAFD- DE C2 | z8 | gafd- ded_d | c2 z2 !>!c2!p! G^G | A f2 A f2 Af- | f4- f!<(!fg^g!<)! | %6
!f! afga- ae g2 | f6!p! G^G | A f2 A f2 Af- | f6!<(! dc!<)! |!f! Bdfa- agfd | g6!p! G^G | %12
 A f2 A f2 Af- | f4- f!<(!fg^g!<)! |!f! afga- ae g2 | f6 fg | afga- afgf | afga- afgf | %18
 afga- ae g2 | f4- fA_B=B | c2 dc- cA_B=B | c2 dc- cAFC | DEFG AGFG | C2 z2 z2 A_B | %24
 c2 dc- cA_B=B | c2 dc- ccd^d | e e2 e- edBG | c4- cA_B=B | c2 dc- cA_B=B | c2 dc- cAFC | %30
 DEFG AGFG | F4- F!p!CB,C | F2 DF- FDFD | C!<(!FAc- cAFC!<)! |!f! D2 F2 A G2 F | F4 z2!p! G^G | %36
 A f2 A f2 Af- | f4- f!<(!fg^g!<)! |!f! afga- ae g2 | f6!p! G^G | A f2 A f2 Af- | f6!<(! dc!<)! | %42
!f! Bdfa- agfd | g6!p! G^G | A f2 A f2 Af- | f4- f!<(!fg^g!<)! |!f! afga- ae g2 | f6 fg | %48
 afga- afgf | afga- afgf | afga- ae g2 | f4 z4 |] %52
V:2
 z8 |!f! DECA,- A,B, G,2 | decA- ABA_A | G2 z2 !>![bg']2 z2 | z2!p! E2 z2 _B2 | A2 A2 Ge=f^f | %6
!f! ge=fg- gd f2 | e2 z2 z4 |!p! z2 E2 z2 _B2 | A2 A2 G2!<(! AG!<)! |!f! FAce- edcA | d6 z2 | %12
!p! z2 E2 z2 _B2 | A2 A2 G!<(!e=f^f!<)! |!f! ge=fg- gd f2 | e6 cd | ecde- ecdc | ecde- ecdc | %18
 ecde- eB d2 | c4- ccd^d | e2 =fe- ecd^d | e2 =fe- e z z2 | A2 A2 _A2 A2 | Ge=fg aged | %24
 e2 =fe- ecd^d | e2 =fe- e z z2 | d d2 d- d4 | B4- Bcd^d | e2 =fe- ecd^d | e2 =fe- e z z2 | %30
 A2 A2 _A2 A2 | G4 z2!p! E2 | A2 A2 A2 A2 |!<(! c2 c2 c2 c2!<)! |!f! F4 =F F2 E- | E4 z2 z2 | %36
 z2!p! E2 z2 _B2 | A2 A2 Ge=f^f |!f! ge=fg- gd f2 | e2 z2 z4 |!p! z2 E2 z2 _B2 | %41
 A2 A2 G2!<(! AG!<)! |!f! FAce- edcA | d6 z2 |!p! z2 E2 z2 _B2 | A2 A2 G!<(!e=f^f!<)! | %46
!f! ge=fg- gd f2 | e6 cd | ecde- ecdc | ecde- ecdc | ecde- eB d2 | c4 z4 |] %52
V:3
 z8 | z8 | D!f!ECA,- A,B,A,_A, | G,2 z2 !>!G,2 z2 |!p! C2 G2 E,2 C2 | %5
 =F,2 =F2 E2!<(!!<(! C2!<)!!<)! |!f! G,2 E2 G,2 =F2 | C2 G,2 C2 z2 |!p! C2 G2 E,2 C2 | %9
 =F,2 =F2 E2!<(! _E2!<)! |!f! D2 F,2 D2 F2 | G2 G,2 A,2!p! B,2 | C2 G2 E,2 C2 | %13
 =F,2 =F2!<(! E2 C2!<)! |!f! G,2 E2 G,2 =F2 | C2 G,2 C2 z2 | C2 G2 _B,2 G2 | A,2 E2 _A,2 E2 | %18
 G,2 G2 G,2 B,2 | C2 G,2 C2 z2 | C2 G2 G,2 G2 | C2 G2 G,2 G2 | =F,2 A,2 F,2 _A,2 | E,2 C2 G,2 B,2 | %24
 C2 G2 G,2 G2 | C2 G2 G,2 G2 | D2 F,2 D2 C2 | G2 =F2 E2 D2 | C2 G2 G,2 G2 | C2 G2 G,2 G2 | %30
 =F,2 A,2 F,2 _A,2 | E,2 G,2 C2!p! _B,2 | =F,2 F,2 ^F,2 F,2 |!<(! G,2 G,2 G,2 G,2!<)! | %34
!f! D2 D2 G,2 G,2 | C2 G,2 C2 z2 |!p! C2 G2 E,2 C2 | =F,2 =F2 E2!<(!!<(! C2!<)!!<)! | %38
!f! G,2 E2 G,2 =F2 | C2 G,2 C2 z2 |!p! C2 G2 E,2 C2 | =F,2 =F2 E2!<(! _E2!<)! |!f! D2 F,2 D2 F2 | %43
 G2 G,2 A,2!p! B,2 | C2 G2 E,2 C2 | =F,2 =F2!<(! E2 C2!<)! |!f! G,2 E2 G,2 =F2 | C2 G,2 C2 z2 | %48
 C2 G2 _B,2 G2 | A,2 E2 _A,2 E2 | G,2 G2 G,2 B,2 | C2 G,2 C2 z2 |] %52

